X: 5911
T: Camel Hump
R: reel
M: 4/4
K: Dmajor
B2 fB df f/g/f|gfed f3 f|eaag efgf|edcd e/f/e dc|
B2 fB df f/g/f|gfed f3 f|eaag efgf|1 edce dBFA:|2 edce defa||
|:bafe f2 df|bafb a4|afef a2 ef|a2 ec afec|B2 fB df f/g/f|
[1 gfed eAce|a2 ag efgf|edce defa:|
[2 gfed f3 f|eaag efgf|edce dBFA||

